misura/client/art/browser.svg

<?xml version="1.0" encoding="utf-8"?>
<!-- Generator: Adobe Illustrator 16.0.4, SVG Export Plug-In . SVG Version: 6.00 Build 0)  -->
<!DOCTYPE svg PUBLIC "-//W3C//DTD SVG 1.1//EN" "http://www.w3.org/Graphics/SVG/1.1/DTD/svg11.dtd">
<svg version="1.1" id="Livello_1" xmlns="http://www.w3.org/2000/svg" xmlns:xlink="http://www.w3.org/1999/xlink" x="0px" y="0px"
	 width="66.464px" height="57.831px" viewBox="0 0 66.464 57.831" enable-background="new 0 0 66.464 57.831" xml:space="preserve">
<g>
	<g>
		<path fill="#004987" d="M22.842,34.875l0.004-0.01c-0.989-0.062-1.953-0.154-2.892-0.273c-9.175-1.493-15.505-5.793-15.29-11.169
			c0.243-5.927,8.58-11.255,19.394-13.254c1.725-1.034,3.079-1.949,4.641-2.687c-2.842,0.152-5.577,0.544-8.142,1.125
			C9.16,10.762,0.255,16.434,0.005,22.635c-0.244,6.047,7.921,10.723,18.722,11.945c1.717,0.266,3.524,0.435,5.402,0.492l0-0.011
			c-0.875-0.057-1.731-0.138-2.569-0.24C21.985,34.844,22.414,34.861,22.842,34.875"/>
	</g>
	<path fill="#004987" d="M56.119,17.654c-1.92-5.315-8.073-9.011-16.004-9.426c-1.164,0.641-1.77,0.878-3.992,2.083
		c0.422-0.046,1.248-0.101,1.672-0.127C46.243,9.654,53.352,12.782,56.119,17.654"/>
	<g>
		<path fill="#009BDE" d="M65.411,10.792c-3.043-16.026-21.207-9.46-21.207-9.46l-3.291,1.05c-2.229,0.86-4.286,1.846-6.146,2.866
			c-8.019,4.626-15.071,11.421-16.708,17.11c-0.263,0.911-0.358,2.23-0.183,2.962c0.005,0.043,0.02,0.11,0.038,0.193
			c-0.023,0.48-0.003,0.934,0.072,1.263c0.024,0.15,0.122,0.578,0.288,1.167c-0.759-4.416,4-9.217,4-9.217
			C32.674,7.772,43.952,5.104,43.952,5.104s16.821-4.956,19.749,9.731c0,0,0.472,2.844-0.519,6.619
			c0.317-0.625,0.575-1.232,0.79-1.819c-0.027,0.108-0.051,0.216-0.08,0.327C66.519,14.793,65.411,10.792,65.411,10.792"/>
	</g>
</g>
<circle fill="none" stroke="#002D62" stroke-width="3" stroke-miterlimit="10" cx="46.714" cy="38.081" r="18.25"/>
<g>
	<path fill="#002D62" d="M57.11,46.123l-5.528-5.527c1.012-1.42,1.609-3.155,1.609-5.027c0-4.789-3.895-8.686-8.684-8.686
		s-8.685,3.896-8.685,8.686c0,4.788,3.896,8.684,8.685,8.684c1.873,0,3.607-0.598,5.027-1.61l5.528,5.528
		c0.282,0.283,0.653,0.424,1.022,0.424c0.371,0,0.742-0.141,1.024-0.423C57.675,47.604,57.675,46.688,57.11,46.123z M44.507,41.357
		c-3.197,0-5.79-2.592-5.79-5.789s2.593-5.791,5.79-5.791s5.789,2.594,5.789,5.791S47.705,41.357,44.507,41.357z"/>
</g>
</svg>

<?xml version="1.0" encoding="UTF-8" standalone="no"?>
<!-- Generator: Adobe Illustrator 16.0.4, SVG Export Plug-In . SVG Version: 6.00 Build 0)  -->

<svg
   xmlns:dc="http://purl.org/dc/elements/1.1/"
   xmlns:cc="http://creativecommons.org/ns#"
   xmlns:rdf="http://www.w3.org/1999/02/22-rdf-syntax-ns#"
   xmlns:svg="http://www.w3.org/2000/svg"
   xmlns="http://www.w3.org/2000/svg"
   xmlns:sodipodi="http://sodipodi.sourceforge.net/DTD/sodipodi-0.dtd"
   xmlns:inkscape="http://www.inkscape.org/namespaces/inkscape"
   version="1.1"
   id="Livello_1"
   x="0px"
   y="0px"
   width="64"
   height="64"
   viewBox="0 0 64.000003 63.999999"
   enable-background="new 0 0 66.464 57.831"
   xml:space="preserve"
   inkscape:version="0.91 r13725"
   sodipodi:docname="browser.svg"
   inkscape:export-filename="/home/daniele/misura4/misura.client/misura/client/art/browser.svg.png"
   inkscape:export-xdpi="90"
   inkscape:export-ydpi="90"><metadata
     id="metadata25"><rdf:RDF><cc:Work
         rdf:about=""><dc:format>image/svg+xml</dc:format><dc:type
           rdf:resource="http://purl.org/dc/dcmitype/StillImage" /><dc:title></dc:title></cc:Work></rdf:RDF></metadata><defs
     id="defs23" /><sodipodi:namedview
     pagecolor="#ffffff"
     bordercolor="#666666"
     borderopacity="1"
     objecttolerance="10"
     gridtolerance="10"
     guidetolerance="10"
     inkscape:pageopacity="0"
     inkscape:pageshadow="2"
     inkscape:window-width="1879"
     inkscape:window-height="1056"
     id="namedview21"
     showgrid="false"
     inkscape:zoom="4.0808562"
     inkscape:cx="32.986952"
     inkscape:cy="28.915501"
     inkscape:window-x="41"
     inkscape:window-y="24"
     inkscape:window-maximized="1"
     inkscape:current-layer="Livello_1" /><g
     id="g3353"
     transform="translate(0.98018646,1.7549534)"><g
       transform="matrix(0.95099005,0,0,0.95099005,-0.3713094,3.5861503)"
       id="g3"><g
         id="g5"><path
           style="fill:#004987"
           inkscape:connector-curvature="0"
           id="path7"
           d="m 22.842,34.875 0.004,-0.01 C 21.857,34.803 20.893,34.711 19.954,34.592 10.779,33.099 4.449,28.799 4.664,23.423 4.907,17.496 13.244,12.168 24.058,10.169 25.783,9.135 27.137,8.22 28.699,7.482 25.857,7.634 23.122,8.026 20.557,8.607 9.16,10.762 0.255,16.434 0.005,22.635 c -0.244,6.047 7.921,10.723 18.722,11.945 1.717,0.266 3.524,0.435 5.402,0.492 l 0,-0.011 c -0.875,-0.057 -1.731,-0.138 -2.569,-0.24 0.425,0.023 0.854,0.04 1.282,0.054" /></g><path
         style="fill:#004987"
         inkscape:connector-curvature="0"
         id="path9"
         d="m 56.119,17.654 c -1.92,-5.315 -8.073,-9.011 -16.004,-9.426 -1.164,0.641 -1.77,0.878 -3.992,2.083 0.422,-0.046 1.248,-0.101 1.672,-0.127 8.448,-0.53 15.557,2.598 18.324,7.47" /><g
         id="g11"><path
           style="fill:#009bde"
           inkscape:connector-curvature="0"
           id="path13"
           d="M 65.411,10.792 C 62.368,-5.234 44.204,1.332 44.204,1.332 l -3.291,1.05 c -2.229,0.86 -4.286,1.846 -6.146,2.866 -8.019,4.626 -15.071,11.421 -16.708,17.11 -0.263,0.911 -0.358,2.23 -0.183,2.962 0.005,0.043 0.02,0.11 0.038,0.193 -0.023,0.48 -0.003,0.934 0.072,1.263 0.024,0.15 0.122,0.578 0.288,1.167 -0.759,-4.416 4,-9.217 4,-9.217 10.4,-10.954 21.678,-13.622 21.678,-13.622 0,0 16.821,-4.956 19.749,9.731 0,0 0.472,2.844 -0.519,6.619 0.317,-0.625 0.575,-1.232 0.79,-1.819 -0.027,0.108 -0.051,0.216 -0.08,0.327 2.627,-5.169 1.519,-9.17 1.519,-9.17" /></g></g><circle
       style="fill:none;stroke:#002d62;stroke-width:2.85297012;stroke-miterlimit:10"
       id="circle15"
       r="17.355568"
       cy="39.800804"
       cx="44.053242"
       stroke-miterlimit="10" /><g
       transform="matrix(0.95099005,0,0,0.95099005,-0.3713094,3.5861503)"
       id="g17"><path
         style="fill:#002d62"
         inkscape:connector-curvature="0"
         id="path19"
         d="m 57.11,46.123 -5.528,-5.527 c 1.012,-1.42 1.609,-3.155 1.609,-5.027 0,-4.789 -3.895,-8.686 -8.684,-8.686 -4.789,0 -8.685,3.896 -8.685,8.686 0,4.788 3.896,8.684 8.685,8.684 1.873,0 3.607,-0.598 5.027,-1.61 l 5.528,5.528 c 0.282,0.283 0.653,0.424 1.022,0.424 0.371,0 0.742,-0.141 1.024,-0.423 0.567,-0.568 0.567,-1.484 0.002,-2.049 z M 44.507,41.357 c -3.197,0 -5.79,-2.592 -5.79,-5.789 0,-3.197 2.593,-5.791 5.79,-5.791 3.197,0 5.789,2.594 5.789,5.791 0,3.197 -2.591,5.789 -5.789,5.789 z" /></g></g></svg>
